X: 305743
M: 2/4
L: 1/16
K: C
c2 |\
e4 dcde | c2e2 G2c2 | A2f2 a2f2 | efed cBAG |\
e2e2 d3g | cGAB c2G2 | ABcA Bcdg | e2d2c2 H|]
d2dc BAGF | GABc d2D2 | G2B2 A2dc | BGA^F G2AB |\
c3B AGFE | F2dc BAGF | EcBc Ad^cd | G2B2"^D.C."c2 |]
e2 |\
c'3b a2a2 | ^g2d'b c'2g2 | abc'a bc'd'c' | c'bc'a e'2e2 |\
fedf edce | dcBA ^G3B | cBA^G AcBA | E2^G2"^D.C."A2 |]


